X:115
T:Haunted House, The
R:jig
S:https://thesession.org/tunes/1098
M:6/8
L:1/8
Z:glauber
K:Gmajor
D |: GFG AGA | BGE EDE | GBd e2 e | ege dBA |
GFG AGA | BGE EDE | GBd ege | dBA G2 D :|
|:GBd e2 e | ege dBA | GAB d2 B | ded BAG |
[1 GBd e2 e | ege dBA | GBd ege | dBA G3 :|
[2 GFG AGA | BGE EDE | GBd ege | dBA G2 D ||

